assets/images/icons/src/hourglass-o.svg

<?xml version="1.0" encoding="utf-8"?>
<!-- Generated by IcoMoon.io -->
<!DOCTYPE svg PUBLIC "-//W3C//DTD SVG 1.1//EN" "http://www.w3.org/Graphics/SVG/1.1/DTD/svg11.dtd">
<svg version="1.1" xmlns="http://www.w3.org/2000/svg" xmlns:xlink="http://www.w3.org/1999/xlink" width="12" height="14" viewBox="0 0 12 14">
<path fill="#444444" d="M11 1q0 2.039-0.832 3.605t-2.082 2.395q1.25 0.828 2.082 2.395t0.832 3.605h0.75q0.109 0 0.18 0.070t0.070 0.18v0.5q0 0.109-0.070 0.18t-0.18 0.070h-11.5q-0.109 0-0.18-0.070t-0.070-0.18v-0.5q0-0.109 0.070-0.18t0.18-0.070h0.75q0-2.039 0.832-3.605t2.082-2.395q-1.25-0.828-2.082-2.395t-0.832-3.605h-0.75q-0.109 0-0.18-0.070t-0.070-0.18v-0.5q0-0.109 0.070-0.18t0.18-0.070h11.5q0.109 0 0.18 0.070t0.070 0.18v0.5q0 0.109-0.070 0.18t-0.18 0.070h-0.75zM6.828 6.531q0.602-0.227 1.164-0.723t1.012-1.191 0.723-1.641 0.273-1.977h-8q0 1.031 0.273 1.977t0.723 1.641 1.012 1.191 1.164 0.723q0.148 0.055 0.238 0.184t0.090 0.285-0.090 0.285-0.238 0.184q-0.602 0.227-1.164 0.723t-1.012 1.191-0.723 1.641-0.273 1.977h8q0-1.031-0.273-1.977t-0.723-1.641-1.012-1.191-1.164-0.723q-0.148-0.055-0.238-0.184t-0.090-0.285 0.090-0.285 0.238-0.184z"></path>
</svg>

<svg xmlns="http://www.w3.org/2000/svg" width="12" height="14" viewBox="0 0 12 14"><path fill="#444" d="M11 1q0 2.039-.832 3.605T8.086 7q1.25.828 2.082 2.395T11 13h.75q.109 0 .18.07t.07.18v.5q0 .109-.07.18t-.18.07H.25q-.109 0-.18-.07T0 13.75v-.5q0-.109.07-.18T.25 13H1q0-2.039.832-3.605T3.914 7q-1.25-.828-2.082-2.395T1 1H.25Q.141 1 .07.93T0 .75v-.5Q0 .141.07.07T.25 0h11.5q.109 0 .18.07t.07.18v.5q0 .109-.07.18t-.18.07H11zM6.828 6.531q.602-.227 1.164-.723t1.012-1.191.723-1.641T10 .999H2q0 1.031.273 1.977t.723 1.641 1.012 1.191 1.164.723q.148.055.238.184T5.5 7t-.09.285-.238.184q-.602.227-1.164.723T2.996 9.383t-.723 1.641T2 13.001h8q0-1.031-.273-1.977t-.723-1.641-1.012-1.191-1.164-.723q-.148-.055-.238-.184T6.5 7t.09-.285.238-.184z"/></svg>
